X:138
T:Long live the nigun
O:klezmer
M:3/4
L:1/8
Q:1/4=90
K:Gm
V:1
D2 |"Gm" D2 G2 G2 |G4 G2 |GD B2 A2 |
G4 G2 |GD B2 A2 |G2 d4 |"D" ^FG A2 A2 |
A4 cc |"Eb" BA G2 A2 |"D" ^F4 D2 |"Eb" E3 DE C|
"D" D4 D2 |"Gm" D2 G2 G2 |G4 G2 |GD B2 A2 |
G4 A2 |"Bb" BF d2 c2 |B2 f4 |"F" AB c2 c2 |
c4 e2 |"D" d3 cd c|"Gm" B4 d2 |"Eb" ^c3 B^c B|
"D" A6   |: (3BAG G2 G2 |"Eb"  (3BAG G2 A2 |"D" ^F3 D"Eb" E C|
"D" D E^F GA c|"Gm"  (3BAG G2 G2 |"Eb"  (3BAG G2 A2 |"D" ^F3 D"Eb" E C|
|1 "D" D2 A4 :|2 "D" D6 ||  |:
K:G
"G" [Bd][ce][d=f][ce][d=f][ce]|[d3=f3][ce][B2d2]|[B2d2][d2=f2][c2e2]|[d3=f3][ce][B2d2]
|"Ab" [c2_e2][c2_e2][c2_e2]|[c3_e3][_Bd][^G2c2]|"G" [B2d2][B2d2][B2d2]|[(3Bd][A(3c][GB][B4d4]
:| |:
K:Gm
"Ab" (c2 c)d cB |^G2 e4 |"Gm" d3 ed c|B4 G2
|"Ab" ^G3 B^G G|"D7" ^F3 DB A|"Gm" G3 DD E|1 D2 d4 :|2
"Gm" D6 ||





